!!!COM: Frescobaldi, Girolamo
!!!CDT: 1583///-1643
!!!ONM: No. 5
!!!OTL: No. 5: Canzon Prima Basso solo
!!!OPR: Canzoni da sonare a una, due, tre et quattro, libro primo
!!!PPP: Venezia
!!!PDT: 1634
!!!URL: http://icking-music-archive.org/ByComposer/Frescobaldi.html
!!!ONB: Andrea Friggi, ed.
**kern	**kern
!Basso ad Organo	!Basso Solo
*staff2	*staff1
*clefF4	*clefF4
*Icello	*Icello
*k[]	*k[]
*met(C)	*met(C)
*M4/4	*M4/4
*MM120	*MM120
=1-	=1-
1D	2r
.	2D\
=2	=2
[1AA	2.A\
.	4A\
=3	=3
2AA/]	2A\
2BB-/	2B-\
=4	=4
1AA	2A\
.	4r
.	4AA/
=5	=5
[1D	2.D\
.	4D\
=6	=6
2D\]	2D\
2F\	2F\
=7	=7
2E\	2E\
4D\	4D\
4C/	4C/
=8	=8
2D\	2D\
2E\	2E\
=9	=9
1AA	1AA
=10	=10
1FF	2r
.	2FF/
=11	=11
2GG/	2GG/
2AA/	2AA/
=12	=12
1BB-	1BB-
=13	=13
1AA	1AA
=14	=14
2D\	4r
.	4D\
4A\	4A\
8A\L	8A\L
8A\J	8A\J
=15	=15
4A\	4A\
4c\	4c\
4G\	4G\
4A\	4A\
=16	=16
2B-\	8B-\L
.	8B-\
.	8A\
.	8G\J
4F\	4F\
4G\	4G\
=17	=17
2A\	2A\
2AA/	4r
.	4AA/
=18	=18
2.D\	4D\
.	8D\L
.	8D\J
.	4D\
4F\	4F\
=19	=19
4C/	4C/
4D\	4D\
2E-\	8E-\L
.	8E-\
.	8D\
.	8C\J
=20	=20
4BB-/	4BB-/
4C/	4C/
2D\	2D\
=21	=21
2GG/	2GG/
2G\	4r
.	4G\
=22	=22
4B-\	4B-\
4D\	4D\
4F\	4F\
8AA/L	8AA/L
8BB/J	8BB/J
=23	=23
2.C/	4C/
.	8C/L
.	8C/J
.	4C/
4FF/	4FF/
=24	=24
4GG/	4GG/
4AA/	4AA/
2BB-/	2BB-/
=25	=25
1AA	1AA
=26	=26
2D\	2r
2A\	4r
.	4A\
=27	=27
2D\	4d\
.	4D\
[2A\	4A\
.	8A\L
.	8A\J
=28	=28
4A\]	4A\
4F\	4F\
4G\	4G\
4A\	4A\
=29	=29
2B-\	4.B-\
.	8A\
4G\	8G\L
.	16F\L
.	16E\JJ
4D\	8D\L
.	8E\J
=30	=30
2F\	8F\L
.	8G\
.	8A\
.	8F\J
2C/	8c\L
.	8C\
.	8E\
.	8C\J
=31	=31
4GG/	8G\L
.	16F\L
.	16E\JJ
4D\	8D/L
.	16C/L
.	16BB/JJ
2AA/	8AA/L
.	8BB/
.	8C/
.	8AA/J
=32	=32
2EE/	4E\
.	4EE/
[2FF/	[2FF/
=33	=33
2FF/]	4FF/]
.	4FF/
2GG/	2GG/
=34	=34
1AA	1AA
=35	=35
1D	1D
=36	=36
*clefC4	*M2/2
*M2/2	*
2d\	1.r
4c#\	.
4d\	.
2B\	.
=37	=37
2c\	2c\
4.B\	4.B\
8c\	8c\
2A\	2A\
=38	=38
*clefF4	*
2.G\	1G
4F\	.
2E\	2r
=39	=39
2F\	2F\
4.E\	4.E\
8F\	8F\
2D\	2D\
=40	=40
2.C/	2.C/
4E\	4E\
4F\	4F\
4G\	4G\
=41	=41
2A\	2.A\
1G	.
.	4B-\
.	4G\
.	4A\
=42	=42
1F	1F
2C#/	2r
=43	=43
2.D\	1.r
4E\	.
2F\	.
=44	=44
1C	1.r
2C/	.
=45	=45
*	*clefC4
1FF	2.f\
.	4e\
2FF/	4c\
.	4d\
=46	=46
1.C	2e\
.	1c
=47	=47
1.D	2.d\
.	4c\
.	4A\
.	4B\
=48	=48
1C	1c
2G\	2G/
=49	=49
1A	2.A\
.	4G/
2E\	4E/
.	4F/
=50	=50
*	*clefF4
2G\	2G\
2.D\	2.D\
4C/	4C/
=51	=51
2AA/	4AA/
.	4BB/
2.C/	2.C/
4BB/	4BB/
=52	=52
2GG/	4GG/
.	4AA/
2.BB-/	2.BB-/
4AA/	4AA/
=53	=53
2FF/	2FF/
1C	1C
=54	=54
*met(C)	*met(C)
*M4/4	*M4/4
1FF	1FF
=55	=55
2.F\	1r
8E\L	.
8D\J	.
=56	=56
2C/	2r
[2D\	[2d\
=57	=57
2D\]	4d\]
.	8c\L
.	8B\J
2A\	8A\L
.	16B\L
.	16c\JJ
.	8B\L
.	8A\J
=58	=58
1B-	[2B-\
.	8B-\L]
.	8A\
.	8G\
.	8F#\J
=59	=59
2G\	2G\
2D\	8D\L
.	16E\L
.	16F\JJ
.	8E\L
.	8D\J
=60	=60
2C#/	8.C#\L
.	16A\k
.	8G\
.	8A\J
2D\	8.D\L
.	16F\k
.	8E\
.	8F\J
=61	=61
2AA/	8.AA/L
.	16C/k
.	8BB/
.	8C/J
4.FF/	4.FF/
8GG/	8GG/
=62	=62
2AA/	2AA/
2EE/	2EE/
=63	=63
1AA	1AA
=64	=64
*clefC4	*
4.d\	1r
16c\LL	.
16B\JJ	.
8A\L	.
8c\	.
8c\	.
8c\J	.
=65	=65
4G/	2r
4A\	.
*clefF4	*
2D\	4.D\
.	16C/LL
.	16BB/JJ
=66	=66
4AA/	8AA/L
.	8C/
4C/	8C/
.	8C/J
4GG/	8.GG/L
.	16AA/Jk
4BB-/	4BB-/
=67	=67
2FF/	8FF/L
.	8GG/
.	8AA/
.	8BB/J
2C/	2C/
=68	=68
2FF/	1FF
4.F\	.
16E\LL	.
16D\JJ	.
=69	=69
8C\L	2r
8D\	.
8E\	.
8F\J	.
4G\	4.G\
4GG/	.
.	16F\LL
.	16E\JJ
=70	=70
4D\	8D\L
.	8F\
4F\	8F\
.	8F\J
2E\	8.E\L
.	16G\Jk
.	8F\L
.	8E\J
=71	=71
2F\	8F\L
.	8G\
.	8A\
.	8B\J
2C/	4.c\
.	16B\LL
.	16A\JJ
=72	=72
4G\	8G\L
.	8B-\
4B-\	8B-\
.	8B-\J
2F#\	8F#\L
.	16G\L
.	16A\JJ
.	8G\L
.	8F#\J
=73	=73
2G\	2G\
2C/	2C/
=74	=74
4.D\	1r
8E\	.
2AA/	.
=75	=75
2D\	4.d\
.	16c\LL
.	16B\JJ
4A\	8A\L
.	8c\
4c\	8c\
.	8c\J
=76	=76
2G\	4.G\
.	16F\LL
.	16E\JJ
2D\	4.D\
.	16C/LL
.	16BB/JJ
=77	=77
4AA/	8AA/L
.	8C/
4C/	8C/
.	8C/J
4GG/	8.GG/L
.	16AA/Jk
4BB-/	4BB-/
=78	=78
2FF#/	2FF#/
2GG/	2GG/
=79	=79
1AA	2AA/
.	4r
.	[4A\
=80	=80
1BB-	4A\]
.	8G\L
.	8F\J
.	2G\
=81	=81
1C	2r
.	2C/
=82	=82
2D\	2D\
2E\	2E\
=83	=83
2F\	2F\
4.C#/	4.C#/
8D\	8D\
=84	=84
2E\	2E\
[2AA/	[2AA/
=85	=85
4AA/]	4AA/]
4EE/	4EE/
2GG/	2GG/
=86	=86
1C	1C
=87	=87
2BB/	1r
2C/	.
=88	=88
1D	1r
=89	=89
*M12/8	*clefC4
*	*M12/8
2G\	8G\L
.	8A\
.	8B\J
.	8G\L
4G\	8d\
.	8B\J
2.C/	8c\L
.	8d\
.	8e\J
.	8A\L
.	8c\
.	8A\J
=90	=90
*	*clefF4
2E\	8E\L
.	8F\
.	8G\J
.	8C/L
4E\	8E/
.	8C/J
2.D\	8D\L
.	8E\
.	8F\J
.	8D\L
.	8A\
.	8F\J
=91	=91
2AA/	8AA/L
.	8BB/
.	8C/J
.	8AA/L
4AA/	8C/
.	8D/J
2E\	2.E\
4E\	.
=92	=92
2.C#/	2.r
*	*clefC4
2.D\	8d\L
.	8e\
.	8f\J
.	8d\L
.	8A\
.	8B\J
=93	=93
2.A\	8c\L
.	8d\
.	8e\J
.	8A\L
.	8c\
.	8A\J
2.E\	8e\L
.	8f\
.	8g\J
.	8e\L
.	8B\
.	8c\J
=94	=94
2F#\	8d\L
.	8c\
.	8d\J
.	8A\L
4F#\	8B\
.	8c\J
*	*clefF4
2.G\	8G\L
.	8F\
.	8G\J
.	8BB/L
.	8C/
.	8D/J
=95	=95
2GG/	8GG/L
.	8AA/
.	8BB/J
.	8GG/L
4GG/	8FF/
.	8EE/J
2.D\	2.DD/
=96	=96
*met(C)	*met(C)
*M4/4	*M4/4
1GG	1GG
=97	=97
1AA	1r
=98	=98
2BB/	1r
2C/	.
=99	=99
2GG/	2r
2G\	2G\
=100	=100
1E	1E
=101	=101
2.F\	2.F\
4E\	4E\
=102	=102
2D\	2D\
2C#/	2C#/
=103	=103
1D	1D
=104	=104
1BB-	1BB-
=105	=105
1AA	1AA
=106	=106
*	*clefC4
2D\	8r
.	8D/L
.	8A/
.	[8d/J
2GG/	8d\L]
.	16c\L
.	16d\JJ
.	8G/L
.	16F/L
.	16G/JJ
=107	=107
2C/	8C/L
.	8.c/
.	16B/L
.	16A/
.	16G/JJ
2F\	4.F/
.	16E/LL
.	16D/JJ
=108	=108
*	*clefF4
4.C#/	4.C#/
8D\	8D\
2E\	2E\
=109	=109
2AA/	8r
.	8AA\L
.	8E\
.	[8A\J
2D\	8A\L]
.	16G\L
.	16A\JJ
.	8D/L
.	16C/L
.	16D/JJ
=110	=110
2GG/	8GG/L
.	8.G/
.	16F/L
.	16E/
.	16D/JJ
2C/	2C/
=111	=111
2E\	8r
.	8E\L
.	8G\
.	[8c\J
2A\	8c\L]
.	16B\L
.	16c\JJ
.	8A\L
.	16G\L
.	16A\JJ
=112	=112
2D\	2D\
[2GG/	8r
.	8GG/L
.	8D/
.	[8G/J
=113	=113
4GG/]	8G\L]
.	16F\L
.	16G\JJ
4C/	8C/L
.	16BB/L
.	16C/JJ
2FF/	8FF/L
.	8.F/
.	16E/L
.	16D/
.	16C/JJ
=114	=114
2D\	[4D\
.	16D\LL]
.	16E\
.	16F\
.	16D\JJ
[2AA/	[4A\
.	8A\L]
.	16E\L
.	16F\JJ
=115	=115
2AA/]	8C#\L
.	16D\L
.	16E\JJ
.	8AA/L
.	16GG/L
.	16AA/JJ
2D\	2DD/
=116	=116
1AA	1AA
=117	=117
0D	0D
==	==
*-	*-
!!!ENC: Craig Stuart Sapp
!!!END: 2004/12/14/
